X: 4
T: The Corner House
R: reel
M: 4/4
L: 1/8
K: Ador
|:EAAG ABcd | e2dB cBAG | EGGF G2AB |cABG AGED |
EAAG ABcd | eaag efge |d2 (3Bcd efge |1 dBGB A2AG :|2 dBGB A2 (3Bcd ||
|:eaag a2ga | bgab gedB | d2 (3Bcd ed (3Bcd |egfa gedB |
eaag a2ga | bgab gedB |d2 (3Bcd efge |1 dBGB A2 (3Bcd :|2 dBGB A3G ||


Tune 479	Setting 23080

